public/svgs/share.svg

<svg width="24" height="24" viewBox="0 0 24 24" fill="none" xmlns="http://www.w3.org/2000/svg">
<path fill-rule="evenodd" clip-rule="evenodd" d="M12.024 3C11.8154 3 11.6068 3.07969 11.4498 3.23672L7.79585 6.89062C7.48178 7.20703 7.48178 7.72031 7.79819 8.03672C8.11225 8.35313 8.62553 8.35313 8.94194 8.03672L11.213 5.76562V15.5C11.213 15.9477 11.5763 16.3109 12.024 16.3109C12.4716 16.3109 12.8349 15.9477 12.8349 15.5V5.76562L15.106 8.03672C15.2583 8.18906 15.4623 8.27344 15.6779 8.27344C15.8935 8.27344 16.0974 8.18906 16.2498 8.03672C16.5662 7.72031 16.5662 7.20703 16.2498 6.89062L12.5982 3.23672C12.4388 3.07969 12.2326 3 12.024 3ZM19.4828 15.3133C19.4828 14.8656 19.8461 14.5023 20.2937 14.5023C20.7414 14.5023 21.1047 14.8656 21.1047 15.3109V20.5352C21.1047 21.3367 20.4531 21.9906 19.6492 21.9906L4.35317 21.9907C3.55161 21.9907 2.89771 21.3391 2.89771 20.5352V15.311C2.89771 14.8657 3.25864 14.5 3.7063 14.5C4.15396 14.5 4.51724 14.8633 4.51724 15.311V19.893C4.51724 20.1602 4.7352 20.3758 5.00005 20.3758L19 20.3758C19.2672 20.3758 19.4828 20.1578 19.4828 19.893V15.3133Z" fill="#F2F2F2"/>
</svg>

<svg width="24" height="24" fill="none" xmlns="http://www.w3.org/2000/svg"><path fill-rule="evenodd" clip-rule="evenodd" d="M12.024 3a.81.81 0 0 0-.574.237L7.796 6.89a.813.813 0 0 0 .002 1.146.808.808 0 0 0 1.144 0l2.271-2.271V15.5a.811.811 0 0 0 1.622 0V5.766l2.271 2.27a.805.805 0 0 0 1.144 0 .81.81 0 0 0 0-1.145l-3.652-3.654A.815.815 0 0 0 12.024 3Zm7.459 12.313a.811.811 0 0 1 1.622-.002v5.224c0 .802-.652 1.456-1.456 1.456H4.353a1.457 1.457 0 0 1-1.455-1.456v-5.224a.81.81 0 1 1 1.62 0v4.582c0 .267.217.483.482.483h14a.484.484 0 0 0 .483-.483v-4.58Z" fill="#F2F2F2"/></svg>
